X:468
T:W.S.M.
C:Martino Coppo 
N:From the CD "Italian Cats" by the Italian Bluegrass group Red Wine Transcribed and Transcribed by Mike Stangeland
R:bluegrass
L:1/8
Q:1/4=240
M:4/4
K:Bb
z8 | [=e'8a8d8G8] | [=e'8a8d8G8] | [=e'4a4d4G4] [e'4a4d4G4] | [=e'4a4d4G4] G,2 [D2G,2] | 
|: "Gm"FG GB AF DD | FG GF DB, G,D | FG GB AG DF | "Bb"G2 [B2G2] [B2G2] [BG]D | 
"Gm"FG GB AF DD | FG GF DB, G,B, | "Cm"CE GE "D"DF AF |1 G"Gm"D B,A, G,2 DF :|2 G"Gm"D B,A, G,4 | 
"Cm"B,C CD EF GB | Bc ce cB GB | "Gm"cd g2 g2 gb | gf dc BG FD | "Cm"B,C CD EF GB | 
Bc ce cB G2 | "Bb"[d2B2] [d2B2] "F#m"[c2A2] [c2A2] | "Gm"GF D_D CB, G,2 | "Cm"B,C CD EF GB | 
Bc ce cB GB | "Gm"cd g2 g2 gb | gf dc BG FD | "Cm"B,C CD EF GB | Bc ce cB G2 | 
{G}"A"A_d dd Ad dd | "D"_Gd dd D4 | "Gm"FG GB AF DD | FG GF DB, G,B, | "Cm"CE GE "D"DF AF | 
"Gm"GD B,A, G,4 | 


